src/pos-icons/printer-3d.svg

<svg height="24" viewBox="0 0 24 24" width="24" xmlns="http://www.w3.org/2000/svg"><path d="m19 6a1 1 0 0 0 1-1 1 1 0 0 0 -1-1 1 1 0 0 0 -1 1 1 1 0 0 0 1 1m0-4a3 3 0 0 1 3 3v6h-4v-4h-12v4h-4v-6a3 3 0 0 1 3-3zm-1 16.25c0 .38-.21.71-.53.88l-4.9 2.69c-.17.12-.36.18-.57.18s-.41-.06-.57-.18l-4.9-2.69c-.32-.17-.53-.5-.53-.88v-5.25c0-.38.21-.71.53-.88l4.9-2.44c.16-.12.36-.18.57-.18s.4.06.57.18l4.9 2.44c.32.17.53.5.53.88zm-6-6.6-2.96 1.35 2.96 1.6 2.96-1.6zm-4 6.01 3 1.63v-2.96l-3-1.62zm8 0v-2.95l-3 1.62v2.96z"/></svg>

<?xml version="1.0" encoding="UTF-8"?><!DOCTYPE svg PUBLIC "-//W3C//DTD SVG 1.1//EN" "http://www.w3.org/Graphics/SVG/1.1/DTD/svg11.dtd"><svg xmlns="http://www.w3.org/2000/svg" xmlns:xlink="http://www.w3.org/1999/xlink" version="1.1" id="mdi-printer-3d" width="24" height="24" viewBox="0 0 24 24"><path d="M19,6A1,1 0 0,0 20,5A1,1 0 0,0 19,4A1,1 0 0,0 18,5A1,1 0 0,0 19,6M19,2A3,3 0 0,1 22,5V11H18V7H6V11H2V5A3,3 0 0,1 5,2H19M18,18.25C18,18.63 17.79,18.96 17.47,19.13L12.57,21.82C12.4,21.94 12.21,22 12,22C11.79,22 11.59,21.94 11.43,21.82L6.53,19.13C6.21,18.96 6,18.63 6,18.25V13C6,12.62 6.21,12.29 6.53,12.12L11.43,9.68C11.59,9.56 11.79,9.5 12,9.5C12.21,9.5 12.4,9.56 12.57,9.68L17.47,12.12C17.79,12.29 18,12.62 18,13V18.25M12,11.65L9.04,13L12,14.6L14.96,13L12,11.65M8,17.66L11,19.29V16.33L8,14.71V17.66M16,17.66V14.71L13,16.33V19.29L16,17.66Z" /></svg>
